X: 2
T: Gan Ainm
T: The Ballyfin Slide
T: Padraigh O'Keeffe's Slide
M: 12/8
L: 1/8
R: slide
K: Dmaj
|: ~f3 fef g2 g g2 f | ~e3 ede f2 f fec |
d/e/dd def a2 g gfe | dcB ABc d3 d3 :| 
|: DFA A/B/AF GBB ~B3 | ~c3 ABc d2 e f3 |
DFF A/B/AF GBB BdB | ~c3 ABc d3 d3 :|
